assets/svg/icon_article_addcover.svg

<svg width="24" height="24" viewBox="0 0 24 24" fill="none" xmlns="http://www.w3.org/2000/svg">
<path fill-rule="evenodd" clip-rule="evenodd" d="M17.8459 2C18.0287 2 18.2039 2.07259 18.3331 2.20179C18.4623 2.33099 18.5349 2.50623 18.5349 2.68895V5.21512H21.061C21.2438 5.21512 21.419 5.2877 21.5482 5.41691C21.6774 5.54611 21.75 5.72135 21.75 5.90407C21.75 6.08679 21.6774 6.26203 21.5482 6.39123C21.419 6.52044 21.2438 6.59302 21.061 6.59302H18.5349V9.11919C18.5349 9.30191 18.4623 9.47715 18.3331 9.60635C18.2039 9.73555 18.0287 9.80814 17.8459 9.80814C17.6632 9.80814 17.488 9.73555 17.3588 9.60635C17.2296 9.47715 17.157 9.30191 17.157 9.11919V6.59302H14.6308C14.4481 6.59302 14.2729 6.52044 14.1437 6.39123C14.0144 6.26203 13.9419 6.08679 13.9419 5.90407C13.9419 5.72135 14.0144 5.54611 14.1437 5.41691C14.2729 5.2877 14.4481 5.21512 14.6308 5.21512H17.157V2.68895C17.157 2.50623 17.2296 2.33099 17.3588 2.20179C17.488 2.07259 17.6632 2 17.8459 2Z" fill="#0166FF"/>
<path fill-rule="evenodd" clip-rule="evenodd" d="M11.875 2H11.8226C9.70158 2 8.03983 2 6.74276 2.17453C5.41629 2.35274 4.36908 2.7257 3.54693 3.54693C2.72478 4.36908 2.35274 5.41629 2.17453 6.74367C2 8.03983 2 9.70158 2 11.8226V11.9274C2 14.0484 2 15.7102 2.17453 17.0072C2.35274 18.3337 2.7257 19.3809 3.54693 20.2031C4.36908 21.0252 5.41629 21.3973 6.74367 21.5755C8.03983 21.75 9.70158 21.75 11.8226 21.75H11.9274C14.0484 21.75 15.7102 21.75 17.0072 21.5755C18.3337 21.3973 19.3809 21.0243 20.2031 20.2031C21.0252 19.3809 21.3973 18.3337 21.5755 17.0063C21.75 15.7102 21.75 14.0484 21.75 11.9274V11.875C21.75 11.6923 21.6774 11.517 21.5482 11.3878C21.419 11.2586 21.2438 11.186 21.061 11.186C20.8783 11.186 20.7031 11.2586 20.5739 11.3878C20.4447 11.517 20.3721 11.6923 20.3721 11.875C20.3721 14.0594 20.3703 15.6284 20.2104 16.8226L20.1902 16.9622L17.642 14.6685C17.0623 14.1469 16.3227 13.8374 15.5443 13.7907C14.7659 13.744 13.9947 13.9628 13.3567 14.4113L13.083 14.6042C12.8617 14.7593 12.5929 14.8315 12.3237 14.8079C12.0546 14.7844 11.8023 14.6667 11.6114 14.4756L7.67055 10.5348C7.16785 10.0323 6.49297 9.7396 5.78258 9.71606C5.07219 9.69253 4.37941 9.93987 3.84456 10.408L3.37883 10.8149C3.38342 9.16879 3.40638 7.91857 3.53958 6.9274C3.69758 5.7525 3.99888 5.04426 4.52157 4.52065C5.04517 3.99797 5.7525 3.69758 6.9274 3.53958C8.12158 3.37974 9.69056 3.37791 11.875 3.37791C12.0577 3.37791 12.233 3.30532 12.3622 3.17612C12.4914 3.04691 12.564 2.87168 12.564 2.68895C12.564 2.50623 12.4914 2.33099 12.3622 2.20179C12.233 2.07259 12.0577 2 11.875 2ZM3.53958 16.8226C3.69758 17.9975 3.99888 18.7057 4.52157 19.2293C5.04517 19.752 5.7525 20.0524 6.9274 20.2104C8.12158 20.3703 9.69056 20.3721 11.875 20.3721C14.0594 20.3721 15.6284 20.3703 16.8226 20.2104C17.9975 20.0524 18.7057 19.7511 19.2293 19.2284C19.4598 18.9984 19.6476 18.7294 19.7842 18.4338C19.7482 18.4108 19.7138 18.3854 19.6813 18.3576L16.7206 15.6936C16.373 15.3802 15.9292 15.194 15.4619 15.1657C14.9946 15.1373 14.5316 15.2684 14.1485 15.5375L13.8757 15.7304C13.3892 16.0724 12.7976 16.2318 12.2052 16.1806C11.6127 16.1293 11.0573 15.8707 10.6367 15.4502L6.69591 11.5094C6.44041 11.254 6.09736 11.1052 5.73626 11.0932C5.37517 11.0813 5.02304 11.2071 4.75122 11.4451L3.37791 12.6466C3.38066 14.4361 3.39903 15.7745 3.53958 16.8226Z" fill="#0166FF"/>
</svg>

<svg xmlns="http://www.w3.org/2000/svg" width="24" height="24" fill="none"><path fill="#0166FF" fill-rule="evenodd" d="M17.846 2a.69.69 0 0 1 .689.689v2.526h2.526a.689.689 0 1 1 0 1.378h-2.526v2.526a.689.689 0 0 1-1.378 0V6.593h-2.526a.689.689 0 0 1 0-1.378h2.526V2.69A.69.69 0 0 1 17.846 2" clip-rule="evenodd"/><path fill="#0166FF" fill-rule="evenodd" d="M11.875 2h-.052c-2.121 0-3.783 0-5.08.175-1.327.178-2.374.55-3.196 1.372s-1.194 1.87-1.372 3.197C2 8.04 2 9.702 2 11.823v.104c0 2.121 0 3.783.175 5.08.178 1.327.55 2.374 1.372 3.196s1.87 1.194 3.197 1.373c1.296.174 2.958.174 5.079.174h.104c2.121 0 3.783 0 5.08-.174 1.327-.179 2.374-.552 3.196-1.373.822-.822 1.194-1.87 1.373-3.197.174-1.296.174-2.958.174-5.079v-.052a.69.69 0 0 0-1.378 0c0 2.184-.002 3.753-.162 4.948l-.02.14-2.548-2.295a3.445 3.445 0 0 0-4.285-.257l-.274.193a1.15 1.15 0 0 1-1.472-.128l-3.94-3.941a2.8 2.8 0 0 0-3.826-.127l-.466.407c.004-1.646.027-2.896.16-3.888.159-1.174.46-1.883.983-2.406s1.23-.823 2.405-.981c1.195-.16 2.764-.162 4.948-.162a.69.69 0 0 0 0-1.378M3.54 16.823c.158 1.174.459 1.883.982 2.406s1.23.823 2.405.981c1.195.16 2.764.162 4.948.162s3.753-.002 4.948-.162c1.174-.158 1.883-.459 2.406-.982.23-.23.419-.499.555-.794a1 1 0 0 1-.103-.076l-2.96-2.664a2.066 2.066 0 0 0-2.572-.157l-.273.193a2.53 2.53 0 0 1-3.24-.28l-3.94-3.94a1.424 1.424 0 0 0-1.945-.065l-1.373 1.202c.003 1.79.021 3.127.162 4.176" clip-rule="evenodd"/></svg>
